X:1
T:He Is Coming
T:He Is Coming
T:Pemberton Pierce
T:Mary A. McKee, ca. 1888
T:Public Domain Courtesy of the Cyber Hymnal™
T:Public Domain Courtesy of the Cyber Hymnal™
C:Pemberton Pierce
Z:Public Domain
Z:Courtesy of the Cyber Hymnal™
%%score ( 1 2 ) ( 3 4 )
L:1/8
Q:1/4=93
M:4/4
K:C
V:1 treble 
V:2 treble 
V:3 bass 
V:4 bass 
V:1
 C[CD] | [CE][CE][CE][CE] [CE][CE][CE][DF] | [EG][EG][FA][DB] [Ec]2 [Ec][Ec] | %3
w: 1.~We are|look- ing for the dawn- ing Of a|bright- er, grand- er day, And the|
w: 2.~Have you|sown be- side the wa- ters? Are you|rea- dy now to say, “I have|
w: 3.~Have you|giv- en to the need- y More than|mor- tal can re- pay? Have you|
 [Gd][Gd][Gc][Gd] [Ge][Ec][Ec][EB] | [^FA][FB][Fc][Fd] G2 [CE][D=F] | %5
w: cur- tains of the morn- ing- tide Will|soon be swept a- way; Are you|
w: scat- tered with an o- pen hand, My|sheaves a- bout me lay; Now my|
w: led them to the fount- ain Flash- ing|out a heal- ing spray? Are you|
 [EG][EG][EG][EG] [EG][EG][EG][EG] | [FA][GB][Ac][Ad] [Ge]2 [Ge][Ge] | %7
w: rea- dy for His com- ing? Will you|hast- en to o- bey When the|
w: sun is slow- ly west- ’ring, While its|beams a- round me stray; Come, O|
w: look- ing to the east- ward, Hop- ing,|wait- ing while you may? All will|
 [Fd][Fc][GB][FA] [FA][EG][Gc][Gc] | [Fd][Fd][Ec][DB] [Ec]2 ||"^Refrain" cB | B(A- A4) BA | %11
w: king- ly One is call- ing And the|clouds have paved His way?|||
w: sun of right- eous- ness, a- rise! As-|sume the scep- tered sway.”|He is|com- ing, * He is|
w: soon be sweet fru- i- tion, Wide- ly|flung the por- tals grey.|||
 A(G- G4) [EG][EG] | [DG]G[GA][GB] [Gc][Gc][Gd][Ge] | d6 [CE][D=F] | %14
w: |||
w: com- ing, * He is|com- ing, and our faith will hold Him|fast; He is|
w: |||
 [EG][EG][EG][EG] [EG][EG][EG][EG] | [FA][GB][Ac][Ad] [Ge]2 [Ge][Ge] | %16
w: ||
w: com- ing, He is com- ing To His|ran- somed ones at last; We may|
w: ||
 [Fd][Fc][GB][FA] [FA][EG][Gc][Gc] | [Fd][Fd][Ec][DB] [Ec]2 |] %18
w: ||
w: hear His state- ly stepp- ings ’Mid the|ru- ins of the past.|
w: ||
V:2
 C x | x8 | x8 | x8 | x4 G2 x2 | x8 | x8 | x8 | x6 || x2 | x2 (FFFF) x2 | x2 (EEEE) x2 | x G x6 | %13
 (G2 GG G2) x2 | x8 | x8 | x8 | x6 |] %18
V:3
 [C,E,][C,F,] | [C,G,][C,G,][C,G,][C,G,] [C,G,][C,G,][C,G,][C,G,] | %2
 [C,C][C,C][C,C][C,C] [C,C]2 [C,C][C,C] | [G,B,][G,B,][G,A,][G,B,] [C,C][C,C][C,C][C,C] | %4
 [D,C][D,C][D,C][D,C] [G,B,]2 [C,G,][C,G,] | [C,C][C,C][C,C][C,C] [C,C][C,C][C,C][C,C] | %6
 [F,C][F,C][F,C][F,C] [C,C]2 [C,C][C,C] | [F,A,][F,A,][F,C][F,C] [C,C][C,C][E,C][E,C] | %8
 [F,A,][F,A,]G,[G,,G,] [C,G,]2 || z2 | z2 [F,C][F,C] [F,C][F,C] z2 | %11
 z2 [C,C][C,C] [C,C][C,C][C,C][C,C] | [G,B,][G,B,][G,C][F,D] [E,C][E,C][D,B,]C | %13
 [G,B,]2 [G,B,][G,B,] [G,B,]2 [C,G,][C,G,] | [C,C][C,C][C,C][C,C] [C,C][C,C][C,C][C,C] | %15
 [F,C][F,C][F,C][F,C] [C,C]2 [C,C][C,C] | [F,A,][F,A,][F,C][F,C] [C,C][C,C][E,C][E,C] | %17
 [F,A,][F,A,]G,[G,,G,] [C,G,]2 |] %18
V:4
 x2 | x8 | x8 | x8 | x8 | x8 | x8 | x8 | x2 G, x3 || x2 | x8 | x8 | x8 | x8 | x8 | x8 | x8 | %17
 x2 G, x3 |] %18

